assets/Beans/Flat/beans_flat.svg

<svg width="32" height="32" viewBox="0 0 32 32" fill="none" xmlns="http://www.w3.org/2000/svg">
<path d="M26.2743 4.36686C26.7066 5.28269 26.7994 6.26896 26.6073 7.18799C26.4216 8.0686 26.841 8.9524 27.6352 9.37189C28.4678 9.80739 29.169 10.5087 29.5981 11.4245C29.6045 11.4389 29.6109 11.4525 29.6173 11.4661C29.6238 11.4797 29.6302 11.4933 29.6366 11.5078C30.879 14.2905 28.756 17.4094 25.7107 17.3357C23.546 17.2813 21.5958 16.01 20.6736 14.0535L18.5634 9.57363C17.6411 7.61388 17.9037 5.3019 19.239 3.59833C21.1219 1.20309 24.8781 1.55533 26.2326 4.2836C26.2486 4.31242 26.2614 4.33804 26.2743 4.36686ZM8.72628 3.26511C8.01219 3.9792 7.5895 4.87901 7.45821 5.80765C7.33332 6.69786 6.64165 7.38953 5.75143 7.51442C4.81959 7.64251 3.92298 8.0652 3.20889 8.78249L3.20888 8.7825C3.18647 8.80491 3.16406 8.82732 3.14484 8.84974C1.0346 11.0464 1.97604 14.7034 4.86763 15.664C6.92344 16.3461 9.18739 15.8113 10.718 14.2775L14.2213 10.7743C15.7519 9.24361 16.2899 6.97965 15.6078 4.92384C14.6439 2.03226 10.987 1.09082 8.79032 3.19786C8.76791 3.22028 8.74549 3.24269 8.72628 3.26511ZM11.7075 19.8748C11.4642 18.9653 11.5026 17.9759 11.8837 17.0376C11.8965 17.0088 11.9093 16.98 11.9221 16.9576C13.1229 14.1588 16.8567 13.6016 18.8676 15.8912C20.2958 17.5179 20.6833 19.8107 19.8699 21.8185L18.0095 26.4073C17.1929 28.415 15.3164 29.7888 13.1581 29.9617C10.1224 30.2051 7.82967 27.2014 8.91842 24.3578C8.92482 24.3434 8.93043 24.329 8.93603 24.3146C8.94163 24.3002 8.94724 24.2858 8.95364 24.2714C9.3315 23.3331 9.99435 22.5934 10.8013 22.1131C11.5698 21.652 11.9413 20.7426 11.7075 19.8748Z" fill="#9D5044"/>
<path d="M8.57256 5.88453C8.42846 5.86531 8.28757 5.91335 8.18189 6.01582C8.11145 6.08626 8.06662 6.17593 8.0506 6.2784C7.98336 6.74912 7.77522 7.17501 7.44539 7.50483C7.11556 7.83466 6.68967 8.046 6.21895 8.11005C6.11968 8.12286 6.03002 8.16769 5.95637 8.24134C5.8539 8.34381 5.80586 8.48791 5.82508 8.632C5.8603 8.88177 6.09406 9.05789 6.34383 9.02267C7.01309 8.92981 7.61831 8.6288 8.09223 8.15488C8.56616 7.68095 8.86716 7.07574 8.96003 6.40648C8.97604 6.2848 8.94402 6.16312 8.87037 6.06705C8.80312 5.96458 8.69425 5.90054 8.57256 5.88453ZM25.5313 6.88365C25.6754 6.91247 25.7907 7.00533 25.8548 7.13983C25.8964 7.22949 25.9092 7.33196 25.89 7.43123C25.7907 7.89875 25.8452 8.36627 26.0437 8.79216C26.2422 9.21485 26.5721 9.55748 26.9915 9.77843C27.0812 9.82647 27.1516 9.89692 27.1933 9.98978C27.2541 10.1211 27.2509 10.2716 27.1837 10.3997C27.0652 10.6238 26.7866 10.7103 26.5624 10.5918C25.9636 10.278 25.4961 9.79124 25.2111 9.18283C24.9261 8.57441 24.8461 7.90515 24.987 7.2423C25.0126 7.12061 25.083 7.01814 25.1855 6.9509C25.288 6.88365 25.4097 6.86123 25.5313 6.88365ZM12.46 19.7821C12.5145 19.6476 12.6265 19.5483 12.7674 19.5099C12.8859 19.4779 13.0076 19.4939 13.1165 19.5579C13.2222 19.6188 13.299 19.7181 13.331 19.8365C13.5072 20.4898 13.4655 21.1654 13.2126 21.7867C12.9596 22.4079 12.5209 22.9202 11.9413 23.2661C11.7235 23.3942 11.4417 23.3237 11.3104 23.106C11.2336 22.9811 11.224 22.8306 11.2784 22.6961C11.3136 22.6032 11.3809 22.5264 11.4674 22.4751C11.8772 22.2318 12.1846 21.8731 12.3608 21.4408C12.5369 21.0053 12.5625 20.5346 12.4408 20.0735C12.4152 19.9774 12.4216 19.875 12.46 19.7821Z" fill="#E39D89"/>
</svg>

<svg xmlns="http://www.w3.org/2000/svg" width="32" height="32" fill="none"><path fill="#9D5044" d="M26.274 4.367a4.45 4.45 0 0 1 .333 2.821 1.996 1.996 0 0 0 1.028 2.184 4.427 4.427 0 0 1 2.002 2.136c1.242 2.783-.881 5.901-3.926 5.828a5.73 5.73 0 0 1-5.037-3.282l-2.11-4.48a5.731 5.731 0 0 1 .675-5.976c1.883-2.395 5.64-2.043 6.994.686.016.028.028.054.041.083ZM8.726 3.265a4.474 4.474 0 0 0-1.268 2.543 1.997 1.997 0 0 1-1.707 1.706A4.425 4.425 0 0 0 3.21 8.782a1.24 1.24 0 0 0-.064.068c-2.11 2.196-1.169 5.853 1.723 6.814a5.718 5.718 0 0 0 5.85-1.386l3.503-3.504a5.725 5.725 0 0 0 1.387-5.85c-.964-2.892-4.621-3.833-6.818-1.726-.022.022-.045.045-.064.067Zm2.981 16.61a4.45 4.45 0 0 1 .177-2.837c.012-.03.025-.058.038-.08 1.2-2.8 4.935-3.356 6.946-1.067a5.724 5.724 0 0 1 1.002 5.928l-1.86 4.588a5.73 5.73 0 0 1-4.852 3.555c-3.036.243-5.328-2.76-4.24-5.604a.98.98 0 0 0 .036-.087 4.429 4.429 0 0 1 1.847-2.158 2 2 0 0 0 .906-2.238Z"/><path fill="#E39D89" d="M8.573 5.885a.468.468 0 0 0-.522.393A2.13 2.13 0 0 1 6.219 8.11a.464.464 0 0 0-.394.522c.035.25.27.426.519.39a3.046 3.046 0 0 0 1.748-.867c.474-.474.775-1.08.868-1.749a.458.458 0 0 0-.09-.339.417.417 0 0 0-.297-.182Zm16.958.999c.144.028.26.121.324.256.041.09.054.192.035.291a2.136 2.136 0 0 0 1.101 2.347.462.462 0 0 1 .192.621.46.46 0 0 1-.62.193 3.032 3.032 0 0 1-1.352-1.41 3.043 3.043 0 0 1-.224-1.94.458.458 0 0 1 .199-.291c.102-.067.224-.09.345-.067ZM12.46 19.782a.46.46 0 0 1 .871.055 3.038 3.038 0 0 1-.118 1.95 3.05 3.05 0 0 1-1.272 1.48.463.463 0 0 1-.663-.57.44.44 0 0 1 .19-.222 2.13 2.13 0 0 0 .973-2.402.456.456 0 0 1 .019-.29Z"/></svg>
